X:1
T:Beautiful Story to Tell
T:Beautiful Story to Tell
T:S. A. Myers
T:Franklin Lycurgus Eiland, 1892
T:Public Domain Courtesy of the Cyber Hymnal™
C:S. A. Myers
Z:Public Domain
Z:Courtesy of the Cyber Hymnal™
%%score ( 1 2 ) ( 3 4 )
L:1/8
Q:1/4=90
M:6/8
K:C
V:1 treble 
V:2 treble 
V:3 bass 
V:4 bass 
V:1
 [CE][DF][EG] [FA][EG][CE] | [Ec][GB][FA] [EG]2 z | [EG]>[EG][EG] [Gc][FB][Ec] | [Gd]3- [Gd]2 z | %4
w: 1.~Sow- ing and reap- ing for|Je- sus our king,|Beau- ti- ful sto- ry to|tell! *|
w: 2.~Sow- ing the words of His|won- der- ful love,|Beau- ti- ful sto- ry to|tell! *|
w: 3.~Sow- ing for Je- sus, yes,|sow- ing to- day,|Beau- ti- ful sto- ry to|tell! *|
w: 4.~Sow- ing, still sow- ing for|Je- sus we send,|Beau- ti- ful sto- ry to|tell! *|
 [Ge][Fd][Ec] [Ec][DB][Ec] | [Fd][Fc][FA] [FA]2 z | [EG]>[Ec][Ec] [DB][Ec][Fd] | [Ec]3- [Ec]2 z || %8
w: Spread- ing His Gos- pel in|truth as we sing,|Beau- ti- ful sto- ry to|tell. *|
w: Point- ing the err- ing to|Hea- ven a- bove,|Beau- ti- ful sto- ry to|tell. *|
w: Sow- ing for Je- sus, for|He is the way,|Beau- ti- ful sto- ry to|tell. *|
w: Seed that we’ll har- vest when|com- eth the end,|Beau- ti- ful sto- ry to|tell. *|
"^Refrain" [Ge][Ge][Ge] [Ec][Ec][Ec] | (d2 c) [FA]2 z | [FA][FA][FA] [^Fd][FA][Fc] | %11
w: |||
w: Sow- ing the seed of the|king- * dom,|Sing it wher- ev- er you|
w: |||
w: |||
 ([GB-]3 [FB]2) z | [EG][EG][EG] [Ec][Fd][Ge] | [Af]3 [FA]3 | [EG]2 [EG] [FB][FA][FB] | %15
w: ||||
w: go; *|Reap- ers shall ga- ther to-|ge- ther,|What- so- ev- er they|
w: ||||
w: ||||
 [Ec]3- [Ec]2 |] %16
w: |
w: sow. *|
w: |
w: |
V:2
 x6 | x6 | x6 | x6 | x6 | x6 | x6 | x6 || x6 | F3 x3 | x6 | x6 | x6 | x6 | x6 | x5 |] %16
V:3
 z6 | z6 | [C,C]>[C,C][C,C] [E,G,][D,G,][C,G,] | [G,,G,B,]3- [G,,G,B,]2 z | z6 | z6 | %6
w: ||||||
 [G,C]>G,G, G,G,G, | [C,G,]3- [C,G,]2 z || [C,C]3 [C,G,]2 [C,G,] | %9
w: * Sow- ing the seed of||the king- dom,|
 [F,A,][F,A,][F,A,] [F,C]2 [F,C] | [D,D]3 [D,D]2 [D,D] | [G,D][G,D][G,D] [G,D]2 z | %12
w: Sing it wher- ev- er|you go, Reap-|ers shall ga- ther|
 [C,C]3 [C,G,]2 [C,C] | [F,C][F,C][F,C] [F,C]2 [F,C] | [G,C]2 [G,C] [G,,G,][G,,G,][G,,G,] | %15
w: to- ge- ther,|||
 [C,G,]3- [C,G,]2 |] %16
w: |
V:4
 x6 | x6 | x6 | x6 | x6 | x6 | x3/2 G,/G, G,G,G, | x6 || x6 | x6 | x6 | x6 | x6 | x6 | x6 | x5 |] %16

